X: 12
T: Newmarket
Z: David Sweenie
S: https://thesession.org/tunes/331#setting48201
R: polka
M: 2/4
L: 1/8
K: Gmaj
|:D2 DB|AG EG|D2 DB|AG G2|
D2 DB|AG EG|D d2 B|AG G2:|
|:Bd A>B|AG EG|Bd A>B|AG G2|
Bd A>B|AG EG|D d2 B|AG G2:|

%-------------------- TUNE SEPARATOR --------------------%

